X: 14768
T: Gan Ainm
R: hornpipe
M: 4/4
K: Amajor
|:ec|dcBA cBAG|Ac (3efg a2 (3efg|aecA defg|(3agf ec B2 ec|
dcBA cBAG|Ac (3efg a2 ge|fagf edcB|A2 A2 A2:|
|:(3efg|a2 fagb e2|a2 fagb e2|afec defg|afec B2 ed|
dcBA cBAG|Ac (3efg a2 ge|fagf edcB|1 Acec A2:|2 Acec A4||

